images/partners-img1.svg

<svg width="220" height="62" viewBox="0 0 220 62" fill="none" xmlns="http://www.w3.org/2000/svg">
<g clip-path="url(#clip0_285_2533)">
<path d="M218.646 53.8291C218.646 50.3903 216.242 47.8722 212.931 47.8722C209.626 47.8722 207.22 50.3903 207.22 53.8291C207.22 57.2624 209.626 59.7763 212.931 59.7763C216.242 59.7763 218.646 57.2582 218.646 53.8291ZM211.43 54.1347V58.0255H210.191V49.4459H213.269C215.073 49.4459 215.901 50.2452 215.901 51.8035C215.901 52.7633 215.262 53.5236 214.438 53.6338V53.6701C215.153 53.7859 215.416 54.4332 215.563 55.6176C215.676 56.3849 215.825 57.7158 216.095 58.0283H214.629C214.288 57.2219 214.323 56.0808 214.06 55.1252C213.843 54.3983 213.461 54.1333 212.64 54.1333H211.437V54.1374L211.43 54.1347ZM212.966 53.0256C214.169 53.0256 214.512 52.3755 214.512 51.8021C214.512 51.1241 214.169 50.5884 212.966 50.5884H211.43V53.0284H212.966V53.0256ZM205.857 53.8291C205.857 49.5923 209.172 46.7283 212.926 46.7283C216.69 46.7283 220.001 49.5923 220.001 53.8291C220.001 58.0576 216.692 60.9244 212.926 60.9244C209.172 60.9244 205.857 58.0576 205.857 53.8291Z" fill="#FF5A00"/>
<path d="M181.359 59.6869L173.21 50.4139L165.132 59.6869H148.134L164.747 40.7503L148.134 21.8082H165.662L173.894 31.01L181.816 21.8082H198.731L182.201 40.6708L198.96 59.6869H181.359ZM115.495 59.6869V0.0158691H148.134V13.3164H129.32V21.8082H148.134V34.6065H129.32V46.3529H148.134V59.6869H115.495Z" fill="#FF5A00"/>
<path d="M101.721 0.0158691V24.4365H101.568C98.5197 20.8818 94.7096 19.643 90.2918 19.643C81.239 19.643 74.4191 25.8915 72.0253 34.1461C69.2946 25.0489 62.2533 19.4728 51.8145 19.4728C43.3351 19.4728 36.6417 23.333 33.1451 29.6247V21.8068H15.6211V13.3178H34.747V0.0186631H0V59.6869H15.6211V34.6065H31.1913C30.7117 36.5351 30.4719 38.5171 30.4777 40.5062C30.4777 52.9474 39.8481 61.6902 51.8118 61.6902C61.8683 61.6902 68.5012 56.8954 72.006 48.1665H58.6179C56.8084 50.7934 55.4335 51.569 51.8132 51.569C47.6167 51.569 43.9951 47.8526 43.9951 43.4526H71.2553C72.4378 53.3366 80.0276 61.859 90.4444 61.859C94.9378 61.859 99.0518 59.6172 101.567 55.8296H101.718V59.6953H115.491V0.0186631H101.721V0.0158691ZM44.4295 34.785C45.2999 30.9933 48.197 28.5156 51.8132 28.5156C55.7951 28.5156 58.545 30.9165 59.2669 34.785H44.4295ZM93.3621 50.6064C88.2871 50.6064 85.1329 45.8088 85.1329 40.7978C85.1329 35.4407 87.8774 30.2943 93.3621 30.2943C99.0531 30.2943 101.32 35.4435 101.32 40.7978C101.32 45.873 98.9198 50.6064 93.3621 50.6064Z" fill="#29007C"/>
</g>
<defs>
<clipPath id="clip0_285_2533">
<rect width="220" height="61.875" fill="white"/>
</clipPath>
</defs>
</svg>

<svg width="220" height="62" fill="none" xmlns="http://www.w3.org/2000/svg"><g clip-path="url(#a)"><path d="M218.646 53.83c0-3.44-2.404-5.958-5.715-5.958-3.305 0-5.711 2.518-5.711 5.957 0 3.433 2.406 5.947 5.711 5.947 3.311 0 5.715-2.518 5.715-5.947Zm-7.216.305v3.89h-1.239v-8.58h3.078c1.804 0 2.632.8 2.632 2.358 0 .96-.639 1.72-1.463 1.83v.037c.715.116.978.763 1.125 1.948.113.767.262 2.098.532 2.41h-1.466c-.341-.806-.306-1.947-.569-2.903-.217-.727-.599-.992-1.42-.992h-1.203v.004l-.007-.002Zm1.536-1.11c1.203 0 1.546-.65 1.546-1.223 0-.678-.343-1.214-1.546-1.214h-1.536v2.44h1.536v-.002Zm-7.109.804c0-4.237 3.315-7.1 7.069-7.1 3.764 0 7.075 2.863 7.075 7.1 0 4.229-3.309 7.095-7.075 7.095-3.754 0-7.069-2.866-7.069-7.095ZM181.359 59.687l-8.149-9.273-8.078 9.273h-16.998l16.613-18.937-16.613-18.942h17.528l8.232 9.202 7.922-9.202h16.915l-16.53 18.863 16.759 19.016h-17.601Zm-65.864 0V.016h32.639v13.3H129.32v8.492h18.814v12.798H129.32v11.747h18.814v13.334h-32.639Z" fill="#FF5A00"/><path d="M101.721.016v24.42h-.153c-3.048-3.554-6.858-4.793-11.276-4.793-9.053 0-15.873 6.248-18.267 14.503-2.73-9.097-9.772-14.673-20.21-14.673-8.48 0-15.173 3.86-18.67 10.152v-7.818H15.621v-8.49h19.126V.02H0v59.668h15.621v-25.08h15.57c-.48 1.928-.72 3.91-.713 5.9 0 12.44 9.37 21.183 21.334 21.183 10.056 0 16.69-4.795 20.194-13.523H58.618c-1.81 2.626-3.184 3.402-6.805 3.402-4.196 0-7.818-3.716-7.818-8.116h27.26c1.183 9.884 8.773 18.406 19.19 18.406 4.493 0 8.607-2.242 11.122-6.03h.151v3.866h13.773V.02h-13.77V.016ZM44.429 34.785c.87-3.792 3.768-6.27 7.384-6.27 3.982 0 6.732 2.401 7.454 6.27H44.429Zm48.933 15.821c-5.075 0-8.23-4.797-8.23-9.808 0-5.357 2.745-10.504 8.23-10.504 5.691 0 7.958 5.15 7.958 10.504 0 5.075-2.4 9.808-7.958 9.808Z" fill="#29007C"/></g><defs><clipPath id="a"><path fill="#fff" d="M0 0h220v61.875H0z"/></clipPath></defs></svg>
